X: 9
T:Miss McLeods
M:4/4
L:1/8
S:Charlie Harris, London (Accordian)
R:Reel
D:Private tape - Milltown Malbay 1985
N:As played
H:Very much a melodeon version (D row) removing a lot of the bellows work
H:which would otherwise be needed.
Z:Bernie Stocks
K:A
A2fA e2cB | AccB cecB | A2fA eAcA | BcBA GBEG | A2fA e2cB | AccB cde2 |\
defa fece | afec BecB || (3.A.A.AAa fdaf | eccB cecB | (3.A.A.AAa fdaf |\
ecBA BecB | (3.A.A.AAa fdaf | eccB cde2 | defa fece|afec BecB ||
<end>
<start>
